src/user-plain.svg

<svg width="24" height="24" viewBox="0 0 24 24" xmlns="http://www.w3.org/2000/svg" xmlns:xlink="http://www.w3.org/1999/xlink">
  <path d="M12 12c2.21 0 4-1.79 4-4s-1.79-4-4-4-4 1.79-4 4 1.79 4 4 4zm0 2c-2.67 0-8 1.34-8 4v2h16v-2c0-2.66-5.33-4-8-4z" fill="currentColor"/>
</svg>

<svg width="24" height="24" viewBox="0 0 24 24" xmlns="http://www.w3.org/2000/svg">
<path fill-rule="evenodd" clip-rule="evenodd" d="M12 12C14.21 12 16 10.21 16 8C16 5.79 14.21 4 12 4C9.79 4 8 5.79 8 8C8 10.21 9.79 12 12 12V12ZM12 14C9.33 14 4 15.34 4 18V20H20V18C20 15.34 14.67 14 12 14V14Z" fill="currentColor"/>
</svg>
